X:1
T:Title
%%score { ( 1 3 ) | ( 2 4 ) }
L:1/8
Q:1/4=100
M:4/4
K:A
V:1 treble nm="Grand Piano"
V:3 treble 
V:2 bass 
V:4 bass 
V:1
 D2 F2 B3 F | z2 [Fd]2 z4 | d2 F2 B2 D2 | =G2 F2 [A,E]4 | DFAB A3 F | ABcd d2 c2 | %6
w: Albert~J.~Holden * * *||||||
 [^Ec]2 [CGB]2 [CA]2 [DGB]2 | [FA]2 .[C^EG]2 [A,F]4 | A2 A2 A3 E | [A,EA]2 B2 c2 A2 | B2 B2 B3 F | %11
w: |||||
 [B,FB]2 c2 ^d4 | e2 c2 d3 A | B2 A=G F2 [CE]2 | z4 z2 d2 | d2 [Ec]2 [Fd]4 |] %16
w: |||||
V:2
 D,2 F,2 B,3 F, | A,2 .[D,A,]2 [A,E]2 [=G,A,E]2 | [F,A,D]2 [B,D]2 [=G,B,D]2 [F,A,]2 | %3
 [E,A,C]2 [D,A,D]2 z2 .C2 | D,F,A,B, A,3 F, | [D,F,D]2 [F,A,D]2 [G,B,E]2 [A,E]2 | %6
 [C,G,]2 ^E,2 F,2 B,2 | C2 z B, F,4 | A,2 A,2 A,3 E, | C,2 [E,G,E]2 [A,E]2 [A,CE]2 | %10
 B,2 B,2 B,3 F, | ^D,2[K:treble] [F,^A,F]2 [B,F]4 | [G,B,E]2 [A,E]2 [F,A,D]3 [F,=CD] | %13
 [=G,B,D]2 [E,B,D]2 [A,D]2 [A,,A,]2 | [A,D]-[E,A,D] [F,A,D]2 DE[F,A,D][=G,B,] | %15
 [A,F]2 [A,,A,]2 [D,A,]4 |] %16
V:3
 x8 | A2 z F, d2 c2 | x8 | z4 D2 z2 | x8 | x8 | x8 | x8 | x8 | x8 | x8 | x8 | x8 | x8 | %14
 F=G A2 Bc z E | x8 |] %16
V:4
 x8 | x8 | x8 | z4 A,,4 | x8 | x8 | x8 | z2 C,2 z4 | x8 | x8 | x8 | x2[K:treble] x6 | x8 | x8 | %14
 .D,2 z2 [E,=G,]2 z2 | x8 |] %16

